X:1
T: The Lodge Road
C:
R:Reel
Q: 232
K:D
M:4/4
L:1/8
|:A|d2 df ed cB|A2 A2 A2 F2|DF AF DF AF|G2 FG E2 A2|d2 df ed cB|A2 A2 A2 F2|DF AF G2 EF|
D2 D2 D2 A2|de fg ag fe|de fg a2 af|g2 eg f2 df|ed cB AB cA|f2 f2 g2 g2|e2 e2 f2 fe|
df af df af|g2 fg e2 z2|f2 f2 g2 g2|e2 e2 f2 fe|df af bg ec|d2 de dc BA|d2 df ed cB|
A2 A2 A2 F2|DF AF DF AF|G2 FG E2 A2|d2 df ed cB|A2 A2 A2 F2|DF AF G2 EF|D2 D2 D2:|
